X:1
T:Title
%%score { ( 1 3 ) | ( 2 4 ) }
L:1/8
M:4/4
K:Ab
V:1 treble nm="Grand Piano"
V:3 treble 
V:2 bass 
V:4 bass 
V:1
 z4 z2[Q:1/4=100] [CE][CA] | [Ec]3 c d3 E | d c3 z2 [EG]A | B3 B d3 G |[M:3/4] [CA]6 | %5
[M:1/4] [CE][CA] |[M:4/4] [Ec]3 c d3 E | d c3 z2 [EG]A | B3 B d3 G |[M:3/4] [CA]6 |[M:1/4] GA | %11
[M:4/4] B3 B d3 G | [CA] [Ec]3 z2 cc | c3 c [ce][Bd][Ac][Bd] |[M:3/4] [GB]6 |[M:1/4] [Ge]>[Ge] | %16
[M:4/4] e3 c A3 E | F2 [Fd]4 [Fc]>[DFB] | [CEA]3 [CE] [EGc]3 [DGB] |[M:3/4] [CEA]6 |[M:1/4] c2 | %21
[M:4/4] B3 c d2 z D | [CA]2 [Ec]4 [Ec]>[Ec] | [EAc]3 [EAc] [Ae][Gd]A-[Ad] |[M:3/4] [EGB]6 | %25
[M:1/4] [Ge]>[Ge] |[M:4/4] e3 c A3 E | F2 [Fd]4 [Fc]>[DFB] | [CEA]3 [CE] [EGc]3 [DGB] | %29
[M:7/4] [CEA]6 z2 z2 z4 |] %30
V:2
 z4 z2 [A,,A,][A,,A,] | [A,,A,]3 [A,E] [G,B,E]3 [G,B,] | [A,E] [A,E]3 z2 [C,B,][E,F,E] | %3
 [E,G,E]3 [E,G,E] [E,B,E]3 [E,B,D] |[M:3/4] [A,,A,]6 |[M:1/4] [A,,A,][A,,A,] | %6
[M:4/4] [A,,A,]3 [A,E] [G,B,E]3 [G,B,] | [A,E] [A,E]3 z2 [C,B,][E,F,E] | %8
 [E,G,E]3 [E,G,E] [E,B,E]3 [E,B,D] |[M:3/4] [A,,A,]6 |[M:1/4] [E,B,E][E,F,E] | %11
[M:4/4] [E,G,E]3 [E,G,E] [E,B,E]3 [E,B,D] | [A,,A,] [A,,A,]3 z2[K:treble] [A,E][A,E] | %13
 [A,EA]3 [A,EA] [A,E]2[K:bass] [A,E]2 |[M:3/4] [E,E]6 |[M:1/4] [E,D]>[E,D] | %16
[M:4/4][K:treble] [A,CA]3 [A,EA][K:bass] [A,CE]3 [C,A,] | [D,A,D]2 [D,A,]4 [D,A,]>D, | %18
 E,3 E, E,3 E, |[M:3/4] A,,6 |[M:1/4] [A,E]2 |[M:4/4] z4 E4 | [A,,A,]2 [A,,A,]4 A,>A, | %23
 A,3 A,, C,B,, z F |[M:3/4] E,6 |[M:1/4] [E,D]>[E,D] | %26
[M:4/4][K:treble] [A,CA]3 [A,EA][K:bass] [A,CE]3 [C,A,] | [D,A,D]2 [D,A,]4 [D,A,]>D, | %28
 E,3 E, E,3 E, |[M:7/4] A,,6 z2 z2 z4 |] %30
V:3
 x8 | x8 | x8 | x8 |[M:3/4] x6 |[M:1/4] x2 |[M:4/4] x8 | x8 | x8 |[M:3/4] x6 |[M:1/4] x2 | %11
[M:4/4] x8 | x8 | x8 |[M:3/4] x6 |[M:1/4] x2 |[M:4/4] x8 | x8 | x8 |[M:3/4] x6 |[M:1/4] x2 | %21
[M:4/4] z4 z2 G2 | x8 | z4 E2 .[Ec]2 |[M:3/4] x6 |[M:1/4] x2 |[M:4/4] x8 | x8 | x8 |[M:7/4] x14 |] %30
V:4
 x8 | x8 | x8 | x8 |[M:3/4] x6 |[M:1/4] x2 |[M:4/4] x8 | x8 | x8 |[M:3/4] x6 |[M:1/4] x2 | %11
[M:4/4] x8 | x6[K:treble] x2 | x6[K:bass] x2 |[M:3/4] x6 |[M:1/4] x2 | %16
[M:4/4][K:treble] x4[K:bass] x4 | x8 | x8 |[M:3/4] x6 |[M:1/4] x2 | %21
[M:4/4] [E,G,E]3 [E,A,E] [E,B,]2 [E,B,]2 | x8 | z4 z2 A,,2 |[M:3/4] x6 |[M:1/4] x2 | %26
[M:4/4][K:treble] x4[K:bass] x4 | x8 | x8 |[M:7/4] x14 |] %30

